X: 12
T: Golden Keyboard, The
C: Martin Mulhaire
Z: Sean Perry
S: https://thesession.org/tunes/36#setting50767
R: reel
M: 4/4
L: 1/8
K: Edor
|: BGEF GFGA | B/2B/2B gB fBeB | BGEF GBAG | F/2E/2D AD BDAF |
E^DEF GFGA | B2 gB fBeB | d2 ce dBAF | DFAF GE !turn!E2 :|
|: Be !turn!e2 Be !turn!e2 |Beef edBc |dA A/2A/2A fdec | dBAF DFAF |
E^DEF GFGA | B2 gB fBeB | d2 ce dBAF | DFAF GE !turn!E2 :|

%-------------------- TUNE SEPARATOR --------------------%

